icons/Inteviewicons.svg

<svg width="16" height="16" viewBox="0 0 16 16" fill="none" xmlns="http://www.w3.org/2000/svg">
<path d="M6.43178 8.89875C5.79654 8.89875 5.24071 8.73985 4.76429 8.46177C4.68488 8.42205 4.36726 8.46177 4.12905 8.5015C3.73203 8.58095 3.37471 8.6604 3.1762 8.46177C2.97769 8.26315 3.05709 7.8659 3.13649 7.46865C3.1762 7.2303 3.2556 6.95223 3.1762 6.83306C2.93798 6.35636 2.81888 5.83994 2.77917 5.24406C2.77917 4.68792 2.89828 4.13177 3.09679 3.61535C3.37471 3.0592 3.69233 2.62223 4.08935 2.34415C4.48637 1.98663 5.0025 1.74828 5.59803 1.58938C6.15387 1.47021 6.7097 1.47021 7.26553 1.58938C7.74195 1.70856 8.21838 1.9469 8.69481 2.30443C9.09183 2.62223 9.44915 3.01947 9.72707 3.57562C9.96528 4.05232 10.0844 4.64819 10.0844 5.20434C10.0844 5.72076 10.005 6.19746 9.80647 6.63443C9.64766 7.0714 9.36975 7.46865 9.01243 7.82618C8.65511 8.1837 8.21838 8.46177 7.82136 8.62067C7.42434 8.73985 6.98761 8.89875 6.43178 8.89875V8.89875ZM4.64518 8.14397C4.76429 8.14397 4.84369 8.14397 4.9231 8.1837C5.35982 8.42205 5.87595 8.58095 6.43178 8.58095C6.90821 8.58095 7.38463 8.46177 7.74195 8.30287C8.13898 8.14397 8.4963 7.90563 8.85362 7.58783C9.17124 7.27003 9.44915 6.87278 9.56826 6.47553C9.76677 6.07828 9.84617 5.64131 9.84617 5.16461C9.84617 4.64819 9.72707 4.13177 9.48885 3.6948C9.21094 3.17837 8.93302 2.78113 8.536 2.50305C8.09927 2.18525 7.62285 1.9469 7.14642 1.86745C6.63029 1.74828 6.11416 1.74828 5.63774 1.86745C5.12161 1.98663 4.64518 2.22498 4.28786 2.54278C3.93054 2.82085 3.61292 3.25782 3.37471 3.73452C3.1762 4.21122 3.05709 4.72764 3.05709 5.20434C3.09679 5.76049 3.2159 6.23718 3.45411 6.67416C3.53352 6.87278 3.49381 7.19058 3.41441 7.50838C3.37471 7.78645 3.2953 8.14397 3.37471 8.22342C3.45411 8.30287 3.85113 8.22342 4.08935 8.1837C4.28786 8.1837 4.48637 8.14397 4.64518 8.14397V8.14397Z" fill="#3D3D3D"/>
<path d="M8.01985 11.0837C7.38461 11.0837 6.70967 10.9248 6.19354 10.5672C5.67741 10.2494 5.20099 9.77274 4.88337 9.25632C4.84367 9.17687 4.84367 9.09742 4.92307 9.05769C5.00248 9.01797 5.08188 9.01797 5.12158 9.09742C5.4392 9.57412 5.83622 10.0111 6.35235 10.3289C6.82878 10.607 7.42431 10.7659 8.01985 10.7659C8.57568 10.7659 9.09181 10.6467 9.52853 10.4083C9.72704 10.2892 10.0447 10.3686 10.3623 10.4083C10.6005 10.4481 10.9975 10.5275 11.0769 10.4481C11.1563 10.3686 11.0769 10.0111 11.0372 9.73302C10.9578 9.41522 10.9181 9.09742 10.9975 8.89879C11.3151 8.30292 11.4342 7.58788 11.3548 6.87283C11.2357 6.11806 10.9181 5.52219 10.4814 5.04549C10.4417 5.00576 10.4417 4.88659 10.4814 4.84686C10.5211 4.80714 10.6402 4.80714 10.6799 4.84686C11.1563 5.36329 11.5136 5.99888 11.6328 6.8331C11.7122 7.58788 11.593 8.38237 11.2754 9.01797C11.2357 9.13714 11.2754 9.41522 11.3151 9.65357C11.3945 10.0508 11.4739 10.4481 11.2754 10.6467C11.0769 10.8453 10.6799 10.7659 10.2829 10.6864C10.0447 10.6467 9.72704 10.5672 9.64764 10.6467C9.21091 10.9248 8.65508 11.0837 8.01985 11.0837V11.0837ZM2.26302 12.4343C1.54838 12.4343 0.913146 11.8384 0.873444 11.0837C0.873444 10.3289 1.50868 9.73302 2.26302 9.73302C3.01736 9.73302 3.6526 10.3289 3.6526 11.0837C3.6526 11.7987 3.01736 12.4343 2.26302 12.4343ZM2.26302 10.0508C1.66749 10.0508 1.19106 10.5275 1.19106 11.0837C1.23076 11.6795 1.70719 12.1165 2.26302 12.1165C2.85856 12.1165 3.33498 11.6398 3.33498 11.0837C3.33498 10.4878 2.85856 10.0508 2.26302 10.0508Z" fill="#3D3D3D"/>
<path d="M4.36725 14.5C4.28784 14.5 4.20844 14.4205 4.20844 14.3411C4.20844 13.8247 4.00993 13.348 3.6129 12.9905C3.25558 12.6329 2.73945 12.4343 2.26303 12.4343C1.7469 12.4343 1.27047 12.6329 0.913152 12.9905C0.516129 13.3877 0.317618 13.8644 0.317618 14.3411C0.317618 14.4205 0.238213 14.5 0.158809 14.5C0.0794045 14.5 0 14.4205 0 14.3411C0 13.7452 0.238214 13.1891 0.674938 12.7521C1.11166 12.3151 1.62779 12.1165 2.26303 12.1165C2.85856 12.1165 3.45409 12.3549 3.85112 12.7521C4.28784 13.1891 4.52605 13.7452 4.52605 14.3411C4.52605 14.4205 4.44665 14.5 4.36725 14.5V14.5Z" fill="#3D3D3D"/>
<path d="M13.737 12.0768C12.9826 12.0768 12.3474 11.4809 12.3474 10.7261C12.3474 9.97135 12.9826 9.37548 13.737 9.37548C14.4913 9.37548 15.1266 9.97135 15.1266 10.7261C15.1266 11.4809 14.4913 12.0768 13.737 12.0768ZM13.737 9.69328C13.1414 9.69328 12.665 10.17 12.665 10.7261C12.665 11.2823 13.1414 11.759 13.737 11.759C14.3325 11.759 14.8089 11.2823 14.8089 10.7261C14.8089 10.17 14.3325 9.69328 13.737 9.69328Z" fill="#3D3D3D"/>
<path d="M15.8412 14.1822C15.7618 14.1822 15.6824 14.1027 15.6824 14.0233C15.6824 13.5068 15.4839 13.0301 15.0869 12.6726C14.7295 12.3151 14.2134 12.1165 13.737 12.1165C13.2209 12.1165 12.7444 12.3151 12.3871 12.6726C11.9901 13.0699 11.7916 13.5466 11.7916 14.0233C11.7916 14.1027 11.7122 14.1822 11.6328 14.1822C11.5534 14.1822 11.474 14.1027 11.474 14.0233C11.474 13.4274 11.7122 12.8712 12.1489 12.4343C12.5856 11.9973 13.1017 11.7987 13.737 11.7987C14.3325 11.7987 14.928 12.037 15.3251 12.4343C15.7618 12.8712 16 13.4274 16 14.0233C16 14.1027 15.9206 14.1822 15.8412 14.1822V14.1822Z" fill="#3D3D3D"/>
</svg>

<svg xmlns="http://www.w3.org/2000/svg" width="16" height="16" fill="currentColor" class="si si-Inteviewicons" viewBox="0 0 16 16">
  <path d="M6.432 8.899a3.26 3.26 0 0 1-1.668-.437c-.08-.04-.397 0-.635.04-.397.079-.754.158-.953-.04-.198-.199-.119-.596-.04-.993.04-.239.12-.517.04-.636-.238-.477-.357-.993-.397-1.589 0-.556.12-1.112.318-1.629.278-.556.595-.993.992-1.27.397-.358.914-.597 1.509-.756a3.9 3.9 0 0 1 1.668 0q.714.18 1.429.715a3.7 3.7 0 0 1 1.032 1.272c.238.476.357 1.072.357 1.628 0 .517-.079.993-.278 1.43-.158.437-.436.835-.794 1.192a3.7 3.7 0 0 1-1.19.795c-.398.119-.834.278-1.39.278m-1.787-.755c.12 0 .199 0 .278.04.437.238.953.397 1.509.397.476 0 .953-.12 1.31-.278.397-.159.754-.397 1.112-.715.317-.318.595-.715.714-1.112.199-.398.278-.835.278-1.311 0-.517-.119-1.033-.357-1.47-.278-.517-.556-.914-.953-1.192-.437-.318-.913-.556-1.39-.636a3.2 3.2 0 0 0-1.508 0c-.516.12-.993.358-1.35.676-.357.278-.675.715-.913 1.192a3.9 3.9 0 0 0-.318 1.47c.04.555.159 1.032.397 1.47.08.198.04.516-.04.833-.04.278-.119.636-.04.715.08.08.477 0 .715-.04.199 0 .397-.039.556-.039"/>
  <path d="M8.02 11.084c-.635 0-1.31-.16-1.826-.517a4.1 4.1 0 0 1-1.31-1.31c-.04-.08-.04-.16.04-.2.078-.039.158-.039.198.04.317.477.714.914 1.23 1.232a3.37 3.37 0 0 0 1.668.437c.556 0 1.072-.12 1.509-.358.198-.119.516-.04.833 0 .239.04.636.12.715.04.08-.08 0-.437-.04-.715-.08-.318-.119-.636-.04-.834.318-.596.437-1.311.358-2.026a3.43 3.43 0 0 0-.874-1.828c-.04-.04-.04-.158 0-.198s.16-.04.199 0a3.6 3.6 0 0 1 .953 1.986c.08.755-.04 1.55-.358 2.185-.04.12 0 .397.04.636.08.397.159.794-.04.993-.198.198-.595.119-.992.04-.238-.04-.556-.12-.635-.04-.437.278-.993.437-1.628.437m-5.757 1.35c-.715 0-1.35-.596-1.39-1.35 0-.755.636-1.351 1.39-1.351s1.39.596 1.39 1.35c0 .716-.636 1.351-1.39 1.351m0-2.383c-.596 0-1.072.476-1.072 1.033.04.596.516 1.033 1.072 1.033.596 0 1.072-.477 1.072-1.033 0-.596-.476-1.033-1.072-1.033"/>
  <path d="M4.367 14.5a.17.17 0 0 1-.159-.159 1.78 1.78 0 0 0-.595-1.35 1.96 1.96 0 0 0-1.35-.557 1.9 1.9 0 0 0-1.35.557c-.397.397-.595.873-.595 1.35a.17.17 0 0 1-.16.159.17.17 0 0 1-.158-.159c0-.596.238-1.152.675-1.589s.953-.636 1.588-.636c.596 0 1.191.239 1.588.636.437.437.675.993.675 1.59a.17.17 0 0 1-.159.158m9.37-2.423c-.754 0-1.39-.596-1.39-1.35 0-.756.636-1.352 1.39-1.352s1.39.596 1.39 1.351-.636 1.35-1.39 1.35m0-2.384c-.596 0-1.072.477-1.072 1.033s.476 1.033 1.072 1.033c.595 0 1.072-.477 1.072-1.033s-.476-1.033-1.072-1.033"/>
  <path d="M15.841 14.182a.17.17 0 0 1-.159-.159 1.78 1.78 0 0 0-.595-1.35 1.96 1.96 0 0 0-1.35-.556 1.9 1.9 0 0 0-1.35.556c-.397.397-.595.874-.595 1.35a.17.17 0 0 1-.16.16.17.17 0 0 1-.158-.16c0-.596.238-1.152.675-1.589s.953-.635 1.588-.635c.595 0 1.191.238 1.588.635.437.437.675.993.675 1.59a.17.17 0 0 1-.159.158"/>
</svg>
